packages/sources/assets/src/assets/flag-kr.svg

<svg width="28" height="20" viewBox="0 0 28 20" fill="none" xmlns="http://www.w3.org/2000/svg">
<rect x="0.25" y="0.25" width="27.5" height="19.5" rx="1.75" fill="white" stroke="#F5F5F5" stroke-width="0.5"/>
<mask id="mask0_503_3460" style="mask-type:alpha" maskUnits="userSpaceOnUse" x="0" y="0" width="28" height="20">
<rect x="0.25" y="0.25" width="27.5" height="19.5" rx="1.75" fill="white" stroke="white" stroke-width="0.5"/>
</mask>
<g mask="url(#mask0_503_3460)">
<path fill-rule="evenodd" clip-rule="evenodd" d="M14 14.6667C16.5773 14.6667 18.6667 12.5773 18.6667 10C18.6667 7.42268 16.5773 5.33334 14 5.33334C11.4227 5.33334 9.33333 7.42268 9.33333 10C9.33333 12.5773 11.4227 14.6667 14 14.6667Z" fill="#E01B41"/>
<mask id="mask1_503_3460" style="mask-type:alpha" maskUnits="userSpaceOnUse" x="9" y="5" width="10" height="10">
<path fill-rule="evenodd" clip-rule="evenodd" d="M14 14.6667C16.5773 14.6667 18.6667 12.5773 18.6667 10C18.6667 7.42268 16.5773 5.33334 14 5.33334C11.4227 5.33334 9.33333 7.42268 9.33333 10C9.33333 12.5773 11.4227 14.6667 14 14.6667Z" fill="white"/>
</mask>
<g mask="url(#mask1_503_3460)">
<path fill-rule="evenodd" clip-rule="evenodd" d="M9.33333 10.6667C10.6667 11.9167 12.6667 12.6667 14 10.6667C15.3333 8.66669 18 8.66669 18.6667 10.6667C19.3333 12.6667 18.6667 14.6667 18.6667 14.6667H9.33333C9.33333 14.6667 8 9.41669 9.33333 10.6667Z" fill="#0E4B9C"/>
</g>
<path opacity="0.75" fill-rule="evenodd" clip-rule="evenodd" d="M6.17308 3.55661C6.26513 3.39718 6.46899 3.34256 6.62842 3.43461L7.20577 3.76794C7.3652 3.85999 7.41983 4.06385 7.32778 4.22328L5.66111 7.11003C5.56907 7.26946 5.3652 7.32409 5.20577 7.23204L4.62842 6.89871C4.46899 6.80666 4.41437 6.6028 4.50641 6.44337L6.17308 3.55661ZM20.7942 3.76794C20.6348 3.85999 20.5802 4.06385 20.6722 4.22328L22.3389 7.11003C22.4309 7.26946 22.6348 7.32409 22.7942 7.23204L23.3716 6.89871C23.531 6.80666 23.5856 6.6028 23.4936 6.44337L21.8269 3.55661C21.7349 3.39718 21.531 3.34256 21.3716 3.43461L20.7942 3.76794ZM19.0622 4.76794C18.9027 4.85999 18.8481 5.06385 18.9402 5.22328L20.6068 8.11003C20.6989 8.26946 20.9027 8.32409 21.0622 8.23204L21.6395 7.89871C21.799 7.80666 21.8536 7.6028 21.7615 7.44337L20.0949 4.55661C20.0028 4.39718 19.799 4.34256 19.6395 4.43461L19.0622 4.76794ZM4.50641 13.5566C4.41437 13.3972 4.46899 13.1933 4.62842 13.1013L5.20577 12.7679C5.3652 12.6759 5.56907 12.7305 5.66111 12.8899L7.32778 15.7767C7.41983 15.9361 7.3652 16.14 7.20577 16.232L6.62842 16.5654C6.46899 16.6574 6.26513 16.6028 6.17308 16.4434L4.50641 13.5566ZM6.36047 12.1013C6.20104 12.1933 6.14642 12.3972 6.23847 12.5566L7.90513 15.4434C7.99718 15.6028 8.20104 15.6574 8.36047 15.5654L8.93782 15.232C9.09725 15.14 9.15188 14.9361 9.05983 14.7767L7.39317 11.8899C7.30112 11.7305 7.09725 11.6759 6.93782 11.7679L6.36047 12.1013ZM20.6068 11.8899C20.6989 11.7305 20.9027 11.6759 21.0622 11.7679L21.6395 12.1013C21.799 12.1933 21.8536 12.3972 21.7615 12.5566L20.0949 15.4434C20.0028 15.6028 19.799 15.6574 19.6395 15.5654L19.0622 15.232C18.9027 15.14 18.8481 14.9361 18.9402 14.7767L20.6068 11.8899ZM22.7942 12.7679C22.6348 12.6759 22.4309 12.7305 22.3389 12.8899L20.6722 15.7767C20.5802 15.9361 20.6348 16.14 20.7942 16.232L21.3716 16.5654C21.531 16.6574 21.7349 16.6028 21.8269 16.4434L23.4936 13.5566C23.5856 13.3972 23.531 13.1933 23.3716 13.1013L22.7942 12.7679ZM8.36047 4.43461C8.20104 4.34256 7.99718 4.39718 7.90513 4.55661L6.23846 7.44337C6.14642 7.6028 6.20104 7.80666 6.36047 7.89871L6.93782 8.23204C7.09725 8.32409 7.30112 8.26946 7.39317 8.11003L9.05983 5.22328C9.15188 5.06385 9.09725 4.85999 8.93782 4.76794L8.36047 4.43461Z" fill="#262626"/>
</g>
</svg>

<svg width="28" height="20" fill="none" xmlns="http://www.w3.org/2000/svg"><rect x=".25" y=".25" width="27.5" height="19.5" rx="1.75" fill="#fff" stroke="#F5F5F5" stroke-width=".5"/><mask id="a" style="mask-type:alpha" maskUnits="userSpaceOnUse" x="0" y="0" width="28" height="20"><rect x=".25" y=".25" width="27.5" height="19.5" rx="1.75" fill="#fff" stroke="#fff" stroke-width=".5"/></mask><g mask="url(#a)"><path fill-rule="evenodd" clip-rule="evenodd" d="M14 14.667a4.667 4.667 0 1 0 0-9.334 4.667 4.667 0 0 0 0 9.334Z" fill="#E01B41"/><mask id="b" style="mask-type:alpha" maskUnits="userSpaceOnUse" x="9" y="5" width="10" height="10"><path fill-rule="evenodd" clip-rule="evenodd" d="M14 14.667a4.667 4.667 0 1 0 0-9.334 4.667 4.667 0 0 0 0 9.334Z" fill="#fff"/></mask><g mask="url(#b)"><path fill-rule="evenodd" clip-rule="evenodd" d="M9.333 10.667c1.334 1.25 3.334 2 4.667 0 1.333-2 4-2 4.667 0 .666 2 0 4 0 4H9.333s-1.333-5.25 0-4Z" fill="#0E4B9C"/></g><path opacity=".75" fill-rule="evenodd" clip-rule="evenodd" d="M6.173 3.557a.333.333 0 0 1 .455-.122l.578.333c.16.092.214.296.122.455L5.66 7.11a.333.333 0 0 1-.455.122l-.578-.333a.333.333 0 0 1-.122-.456l1.667-2.886Zm14.621.21a.333.333 0 0 0-.122.456L22.34 7.11c.092.16.296.214.455.122l.578-.333a.333.333 0 0 0 .122-.456l-1.667-2.886a.333.333 0 0 0-.455-.122l-.578.333Zm-1.732 1a.333.333 0 0 0-.122.456l1.667 2.887c.092.16.296.214.455.122l.578-.333a.333.333 0 0 0 .122-.456l-1.667-2.886a.333.333 0 0 0-.455-.122l-.578.333Zm-14.556 8.79a.333.333 0 0 1 .122-.456l.578-.333a.333.333 0 0 1 .455.122l1.667 2.887a.333.333 0 0 1-.122.455l-.578.333a.333.333 0 0 1-.455-.122l-1.667-2.886ZM6.36 12.1a.333.333 0 0 0-.122.456l1.667 2.886c.092.16.296.214.455.122l.578-.333a.333.333 0 0 0 .122-.455L7.393 11.89a.333.333 0 0 0-.455-.122l-.578.333Zm14.247-.211a.333.333 0 0 1 .455-.122l.578.333a.334.334 0 0 1 .122.456l-1.667 2.886a.333.333 0 0 1-.455.122l-.578-.333a.333.333 0 0 1-.122-.455l1.667-2.887Zm2.187.878a.333.333 0 0 0-.455.122l-1.667 2.887a.333.333 0 0 0 .122.455l.578.333a.333.333 0 0 0 .455-.122l1.667-2.886a.333.333 0 0 0-.122-.456l-.578-.333ZM8.36 4.435a.333.333 0 0 0-.455.122L6.238 7.443a.333.333 0 0 0 .122.456l.578.333c.16.092.363.037.455-.122L9.06 5.223a.333.333 0 0 0-.122-.455l-.578-.333Z" fill="#262626"/></g></svg>
